icon-themes/sifr_svg/cmd/sc_insertobject.svg

<svg viewBox="0 0 16 16" xmlns="http://www.w3.org/2000/svg"><path d="m7.5 1c-3.6 0-6.5 2.9-6.5 6.5s2.9 6.5 6.5 6.5c.17 0 .33-.007907.5 0v-4h2v-2h4c0-.17 0-.33 0-.5 0-3.6-2.9-6.5-6.5-6.5zm3.5 8v2h-2v2h2v2h2v-2h2v-2h-2v-2z" fill="#555753"/></svg>

<svg xmlns="http://www.w3.org/2000/svg" viewBox="0 0 16 16">
  <path
     style="fill:#555753"
     d="M 7.5 1 C 3.9 1 1 3.9 1 7.5 C 1 11.1 3.9 14 7.5 14 C 7.67 14 7.83 13.992093 8 14 L 8 10 L 10 10 L 10 8 L 14 8 C 14 7.83 14 7.67 14 7.5 C 14 3.9 11.1 1 7.5 1 z M 11 9 L 11 11 L 9 11 L 9 13 L 11 13 L 11 15 L 13 15 L 13 13 L 15 13 L 15 11 L 13 11 L 13 9 L 11 9 z "
     />
</svg>
